X:1
T:Title
%%score 1 { 2 | 3 }
L:1/8
Q:1/4=110
M:4/4
K:G
V:1 treble nm="Grand Piano, Soprano"
V:2 treble nm="Choir Pad, We We Are But Straying"
V:3 bass 
V:1
 G3 G G2 D2 | G2 B2 d2 B2 | A3 A A2 A2 | G2 A2 B4 | G3 G G2 D2 | G2 B2 d2 B2 | A3 A A2 G2 | %7
w: By~William~Oscar~Perkins~(1831\-1902) * * *|||||||
 B2 A2 G4 | [GB]2 [GB]2 [GB]2 [GB][FA] | G2 [Ge]2 [Gd]2 [GB]2 | [FA]3 [FA] [FA]2 [FA]2 | %11
w: ||||
 G2 [FA]2 [GB]4 | [GB]3 [GB] [GB]2 [DA]2 | [DG]2 [Ge]2 [Gd]2 [GB]2 | [FA]3 [FA] [FA]2 [FA][FA] | %15
w: ||||
 G2 [FA]2 [GB]2 [Gd]2 | [Ge]3 [Ge] [Gd]2 G2 | [GB]2 [FA]2 G4- | G4 z4 |] %19
w: ||||
V:2
 z8 | z8 | z8 | z8 | z8 | z8 | z8 | z8 | D2 D2 D2 DC | B,2 C2 B,2 D2 | D3 D D2 D2 | D2 D2 D4 | %12
 D3 D D2 C2 | B,2 C2 B,2 D2 | D3 D D2 DD | D2 D2 D2 B,2 | C3 C D2[K:bass] B,2 | D2 C2 B,4- | %18
 B,4 z4 |] %19
V:3
 z8 | z8 | z8 | z8 | z8 | z8 | z8 | z8 | G,2 G,2 G,2 G,G, | G,2 G,2 G,2 G,2 | D,3 D, D,2 D,2 | %11
 B,,2 D,2 G,4 | G,3 G, G,2 G,2 | G,2 G,2 G,2 G,2 | D,3 D, D,2 D,D, | B,,2 D,2 G,2 G,,2 | %16
 C,3 C, B,,2 E,2 | D,2 D,2 G,4- | G,4 z4 |] %19

